; generated by PrusaSlicer 2.5.0+win64 on 2023-01-19 at 12:35:57 UTC


;
;
; 

; external perimeters extrusion width = 0.45mm
; perimeters extrusion width = 0.45mm
; infill extrusion width = 0.45mm
; solid infill extrusion width = 0.45mm
; top infill extrusion width = 0.40mm
; first layer extrusion width = 0.42mm

M73 P0 R79
M73 Q0 S80
M201 X1000 Y1000 Z200 E5000 ; sets maximum accelerations, mm/sec^2
M203 X200 Y200 Z12 E120 ; sets maximum feedrates, mm / sec
M204 P1250 R1250 T1250 ; sets acceleration (P, T) and retract acceleration (R), mm/sec^2
M205 X8.00 Y8.00 Z0.40 E4.50 ; sets the jerk limits, mm/sec
M205 S0 T0 ; sets the minimum extruding and travel feed rate, mm/sec
M107
;TYPE:Custom
M862.3 P "MK3S" ; printer model check
M862.1 P0.4 ; nozzle diameter check
M115 U3.11.0 ; tell printer latest fw version
G90 ; use absolute coordinates
M83 ; extruder relative mode
M104 S215 ; set extruder temp
M140 S60 ; set bed temp
M190 S60 ; wait for bed temp
M109 S215 ; wait for extruder temp
G28 W ; home all without mesh bed level
G80 ; mesh bed leveling

G1 Z0.2 F720
G1 Y-3 F1000 ; go outside print area
G92 E0
G1 X60 E9 F1000 ; intro line
G1 X100 E12.5 F1000 ; intro line

G92 E0
M221 S95

; Don't change E values below. Excessive value can damage the printer.
M907 E430 ; set extruder motor current
G21 ; set units to millimeters
G90 ; use absolute coordinates
M83 ; use relative distances for extrusion
M900 K0.05 ; Filament gcode LA 1.5
M900 K30 ; Filament gcode LA 1.0
M107
;LAYER_CHANGE
;Z:0.2
;HEIGHT:0.2
;BEFORE_LAYER_CHANGE
G92 E0.0
;0.2


G1 E-.8 F2100
G1 Z.4 F720
;AFTER_LAYER_CHANGE
;0.2
G1 X68.515 Y66.693 F10800
G1 Z.2 F720
G1 E.8 F2100
M204 S800
;TYPE:Skirt/Brim
;WIDTH:0.42
G1 F1200
G1 X69.56 Y65.817 E.04278
G1 X70.5 Y65.623 E.03008
G1 X179.5 Y65.623 E3.41762
G1 X180.807 Y66.015 E.04278
G1 X181.683 Y67.06 E.04278
G1 X181.877 Y68 E.03008
G1 X181.877 Y142 E2.32022
G1 X181.485 Y143.307 E.04278
G1 X180.44 Y144.183 E.04278
G1 X179.5 Y144.377 E.03008
G1 X70.5 Y144.377 E3.41762
G1 X69.193 Y143.985 E.04278
G1 X68.317 Y142.94 E.04278
G1 X68.123 Y142 E.03008
G1 X68.123 Y68 E2.32022
G1 X68.497 Y66.75 E.0409
M204 S1000
; printing object Upper case.stl id:0 copy 0
;WIPE_START
G1 F8640
G1 X69.56 Y65.817 E-.32671
G1 X70.5 Y65.623 E-.22155
G1 X71.417 Y65.623 E-.21174
;WIPE_END
G1 E-.04 F2100
G1 Z.6 F720
G1 X178.713 Y68.787 F10800
G1 Z.2 F720
G1 E.8 F2100
M204 S800
;TYPE:Perimeter
;WIDTH:0.419999
G1 F1200
G1 X178.713 Y141.213 E2.27086
G1 X71.287 Y141.213 E3.36826
M73 P0 R78
G1 X71.287 Y68.787 E2.27086
M73 Q0 S79
G1 X178.653 Y68.787 E3.36637
M204 S1000
G1 X179.09 Y68.41 F10800
M204 S800
;TYPE:External perimeter
G1 F1200
G1 X179.09 Y141.59 E2.2945
G1 X70.91 Y141.59 E3.3919
M73 P1 R78
M73 Q1 S79
G1 X70.91 Y68.41 E2.2945
G1 X179.03 Y68.41 E3.39002
M204 S1000
G1 X178.962 Y68.789 F10800
;WIPE_START
G1 F8640
G1 X179.033 Y71.701 E-.76
;WIPE_END
G1 E-.04 F2100
G1 Z.6 F720
G1 X164.702 Y82.462 F10800
G1 Z.2 F720
G1 E.8 F2100
M204 S800
;TYPE:Perimeter
G1 F1200
G1 X164.724 Y82.573 E.00352
G1 X164.724 Y123.015 E1.26806
G1 X164.652 Y123.292 E.00898
G1 X164.481 Y123.48 E.00795
G1 X164.209 Y123.579 E.00907
G1 X124.216 Y123.581 E1.25397
G1 X123.94 Y123.509 E.00895
G1 X123.731 Y123.307 E.00909
G1 X123.651 Y123.041 E.00873
G1 X123.65 Y103.581 E.61014
G1 X83.716 Y103.581 E1.25211
G1 X83.468 Y103.524 E.00798
G1 X83.251 Y103.338 E.00897
G1 X83.155 Y103.086 E.00845
G1 X83.15 Y82.573 E.64318
G1 X83.213 Y82.313 E.00838
G1 X83.367 Y82.128 E.00754
G1 X83.618 Y82.015 E.00864
G1 X164.159 Y82.007 E2.52529
G1 X164.402 Y82.062 E.00781
G1 X164.617 Y82.241 E.00878
G1 X164.681 Y82.406 E.00556
M204 S1000
G1 X164.347 Y82.573 F10800
M204 S800
;TYPE:External perimeter
G1 F1200
G1 X164.347 Y123.015 E1.26806
G1 X164.279 Y123.161 E.00504
G1 X164.176 Y123.203 E.0035
G1 X124.216 Y123.204 E1.25291
G1 X124.069 Y123.134 E.0051
G1 X124.027 Y123.015 E.00393
G1 X124.027 Y103.204 E.62117
G1 X83.716 Y103.204 E1.26394
G1 X83.574 Y103.139 E.00489
G1 X83.527 Y103.015 E.00415
G1 X83.527 Y82.573 E.64097
G1 X83.585 Y82.437 E.00463
G1 X83.716 Y82.384 E.00442
G1 X164.159 Y82.384 E2.52223
G1 X164.3 Y82.448 E.00487
M73 P1 R77
G1 X164.326 Y82.516 E.0023
M204 S1000
G1 X164.734 Y82.676 F10800
;WIPE_START
G1 F8640
G1 X164.328 Y85.808 E-.76
;WIPE_END
G1 E-.04 F2100
G1 Z.6 F720
G1 X178.6 Y69.664 F10800
G1 Z.2 F720
G1 E.8 F2100
M204 S800
;TYPE:Solid infill
;WIDTH:0.420621
G1 F1200
G1 X178.006 Y69.07 E.02638
G1 X177.472 Y69.07 E.01678
G1 X178.43 Y70.028 E.04257
G1 X178.43 Y70.562 E.01678
G1 X176.938 Y69.07 E.06629
G1 X176.403 Y69.07 E.01678
G1 X178.43 Y71.097 E.09001
G1 X178.43 Y71.631 E.01678
G1 X175.869 Y69.07 E.11374
G1 X175.335 Y69.07 E.01678
G1 X178.43 Y72.165 E.13746
G1 X178.43 Y72.699 E.01678
G1 X174.801 Y69.07 E.16119
G1 X174.267 Y69.07 E.01678
G1 X178.43 Y73.233 E.18491
G1 X178.43 Y73.767 E.01678
G1 X173.733 Y69.07 E.20863
G1 X173.199 Y69.07 E.01678
G1 X178.43 Y74.301 E.23236
G1 X178.43 Y74.836 E.01678
G1 X172.664 Y69.07 E.25608
G1 X172.13 Y69.07 E.01678
M73 Q1 S78
G1 X178.43 Y75.37 E.27981
G1 X178.43 Y75.904 E.01678
G1 X171.596 Y69.07 E.30353
G1 X171.062 Y69.07 E.01678
G1 X178.43 Y76.438 E.32726
G1 X178.43 Y76.972 E.01678
G1 X170.528 Y69.07 E.35098
G1 X169.994 Y69.07 E.01678
G1 X178.43 Y77.506 E.3747
G1 X178.43 Y78.04 E.01678
G1 X169.46 Y69.07 E.39843
G1 X168.925 Y69.07 E.01678
G1 X178.43 Y78.575 E.42215
G1 X178.43 Y79.109 E.01678
M73 P2 R77
G1 X168.391 Y69.07 E.44588
M73 Q2 S78
G1 X167.857 Y69.07 E.01678
G1 X178.43 Y79.643 E.4696
G1 X178.43 Y80.177 E.01678
G1 X167.323 Y69.07 E.49332
G1 X166.789 Y69.07 E.01678
G1 X178.43 Y80.711 E.51705
G1 X178.43 Y81.245 E.01678
G1 X166.255 Y69.07 E.54077
G1 X165.72 Y69.07 E.01678
G1 X178.43 Y81.78 E.5645
G1 X178.43 Y82.314 E.01678
G1 X165.186 Y69.07 E.58822
G1 X164.652 Y69.07 E.01678
G1 X178.43 Y82.848 E.61194
G1 X178.43 Y83.382 E.01678
G1 X164.118 Y69.07 E.63567
G1 X163.584 Y69.07 E.01678
G1 X178.43 Y83.916 E.65939
G1 X178.43 Y84.45 E.01678
G1 X163.05 Y69.07 E.68312
G1 X162.516 Y69.07 E.01678
G1 X178.43 Y84.984 E.70684
G1 X178.43 Y85.519 E.01678
G1 X161.981 Y69.07 E.73057
G1 X161.447 Y69.07 E.01678
G1 X178.43 Y86.053 E.75429
G1 X178.43 Y86.587 E.01678
G1 X160.913 Y69.07 E.77801
G1 X160.379 Y69.07 E.01678
G1 X178.43 Y87.121 E.80174
G1 X178.43 Y87.655 E.01678
G1 X159.845 Y69.07 E.82546
G1 X159.311 Y69.07 E.01678
G1 X178.43 Y88.189 E.84919
G1 X178.43 Y88.723 E.01678
G1 X158.777 Y69.07 E.87291
G1 X158.242 Y69.07 E.01678
G1 X178.43 Y89.258 E.89663
G1 X178.43 Y89.792 E.01678
G1 X157.708 Y69.07 E.92036
G1 X157.174 Y69.07 E.01678
G1 X178.43 Y90.326 E.94408
G1 X178.43 Y90.86 E.01678
G1 X156.64 Y69.07 E.96781
G1 X156.106 Y69.07 E.01678
G1 X178.43 Y91.394 E.99153
G1 X178.43 Y91.928 E.01678
G1 X155.572 Y69.07 E1.01526
G1 X155.037 Y69.07 E.01678
G1 X178.43 Y92.463 E1.03898
G1 X178.43 Y92.997 E.01678
G1 X154.503 Y69.07 E1.0627
G1 X153.969 Y69.07 E.01678
G1 X178.43 Y93.531 E1.08643
G1 X178.43 Y94.065 E.01678
G1 X153.435 Y69.07 E1.11015
G1 X152.901 Y69.07 E.01678
G1 X178.43 Y94.599 E1.13388
G1 X178.43 Y95.133 E.01678
G1 X152.367 Y69.07 E1.1576
G1 X151.833 Y69.07 E.01678
G1 X178.43 Y95.667 E1.18132
G1 X178.43 Y96.202 E.01678
G1 X165.007 Y82.779 E.59618
G1 X165.007 Y83.313 E.01678
G1 X178.43 Y96.736 E.59618
G1 X178.43 Y97.27 E.01678
G1 X165.007 Y83.847 E.59618
G1 X165.007 Y84.381 E.01678
G1 X178.43 Y97.804 E.59618
G1 X178.43 Y98.338 E.01678
G1 X165.007 Y84.915 E.59618
G1 X165.007 Y85.449 E.01678
M73 P3 R77
G1 X178.43 Y98.872 E.59618
G1 X178.43 Y99.406 E.01678
M73 Q3 S78
G1 X165.007 Y85.984 E.59618
G1 X165.007 Y86.518 E.01678
G1 X178.43 Y99.941 E.59618
G1 X178.43 Y100.475 E.01678
G1 X165.007 Y87.052 E.59618
G1 X165.007 Y87.586 E.01678
M73 P3 R76
G1 X178.43 Y101.009 E.59618
G1 X178.43 Y101.543 E.01678
G1 X165.007 Y88.12 E.59618
G1 X165.007 Y88.654 E.01678
G1 X178.43 Y102.077 E.59618
G1 X178.43 Y102.611 E.01678
G1 X165.007 Y89.188 E.59618
G1 X165.007 Y89.723 E.01678
G1 X178.43 Y103.146 E.59618
G1 X178.43 Y103.68 E.01678
M73 Q3 S77
G1 X165.007 Y90.257 E.59618
G1 X165.007 Y90.791 E.01678
G1 X178.43 Y104.214 E.59618
G1 X178.43 Y104.748 E.01678
G1 X165.007 Y91.325 E.59618
G1 X165.007 Y91.859 E.01678
G1 X178.43 Y105.282 E.59618
G1 X178.43 Y105.816 E.01678
G1 X165.007 Y92.393 E.59618
G1 X165.007 Y92.928 E.01678
G1 X178.43 Y106.35 E.59618
G1 X178.43 Y106.885 E.01678
G1 X165.007 Y93.462 E.59618
G1 X165.007 Y93.996 E.01678
G1 X178.43 Y107.419 E.59618
G1 X178.43 Y107.953 E.01678
G1 X165.007 Y94.53 E.59618
G1 X165.007 Y95.064 E.01678
G1 X178.43 Y108.487 E.59618
G1 X178.43 Y109.021 E.01678
G1 X165.007 Y95.598 E.59618
G1 X165.007 Y96.132 E.01678
G1 X178.43 Y109.555 E.59618
G1 X178.43 Y110.089 E.01678
G1 X165.007 Y96.667 E.59618
G1 X165.007 Y97.201 E.01678
G1 X178.43 Y110.624 E.59618
G1 X178.43 Y111.158 E.01678
G1 X165.007 Y97.735 E.59618
G1 X165.007 Y98.269 E.01678
G1 X178.43 Y111.692 E.59618
G1 X178.43 Y112.226 E.01678
G1 X165.007 Y98.803 E.59618
G1 X165.007 Y99.337 E.01678
G1 X178.43 Y112.76 E.59618
G1 X178.43 Y113.294 E.01678
G1 X165.007 Y99.871 E.59618
G1 X165.007 Y100.406 E.01678
G1 X178.43 Y113.829 E.59618
G1 X178.43 Y114.363 E.01678
G1 X165.007 Y100.94 E.59618
G1 X165.007 Y101.474 E.01678
G1 X178.43 Y114.897 E.59618
G1 X178.43 Y115.431 E.01678
G1 X165.007 Y102.008 E.59618
G1 X165.007 Y102.542 E.01678
G1 X178.43 Y115.965 E.59618
G1 X178.43 Y116.499 E.01678
G1 X165.007 Y103.076 E.59618
G1 X165.007 Y103.611 E.01678
G1 X178.43 Y117.033 E.59618
G1 X178.43 Y117.568 E.01678
G1 X165.007 Y104.145 E.59618
G1 X165.007 Y104.679 E.01678
G1 X178.43 Y118.102 E.59618
G1 X178.43 Y118.636 E.01678
G1 X165.007 Y105.213 E.59618
G1 X165.007 Y105.747 E.01678
G1 X178.43 Y119.17 E.59618
G1 X178.43 Y119.704 E.01678
G1 X165.007 Y106.281 E.59618
G1 X165.007 Y106.815 E.01678
G1 X178.43 Y120.238 E.59618
G1 X178.43 Y120.772 E.01678
G1 X165.007 Y107.35 E.59618
G1 X165.007 Y107.884 E.01678
G1 X178.43 Y121.307 E.59618
G1 X178.43 Y121.841 E.01678
G1 X165.007 Y108.418 E.59618
G1 X165.007 Y108.952 E.01678
G1 X178.43 Y122.375 E.59618
G1 X178.43 Y122.909 E.01678
G1 X165.007 Y109.486 E.59618
G1 X165.007 Y110.02 E.01678
G1 X178.43 Y123.443 E.59618
G1 X178.43 Y123.977 E.01678
G1 X165.007 Y110.554 E.59618
G1 X165.007 Y111.089 E.01678
M73 P4 R76
G1 X178.43 Y124.512 E.59618
G1 X178.43 Y125.046 E.01678
G1 X165.007 Y111.623 E.59618
G1 X165.007 Y112.157 E.01678
M73 Q4 S77
G1 X178.43 Y125.58 E.59618
G1 X178.43 Y126.114 E.01678
G1 X165.007 Y112.691 E.59618
G1 X165.007 Y113.225 E.01678
G1 X178.43 Y126.648 E.59618
G1 X178.43 Y127.182 E.01678
G1 X165.007 Y113.759 E.59618
G1 X165.007 Y114.294 E.01678
G1 X178.43 Y127.716 E.59618
G1 X178.43 Y128.251 E.01678
G1 X165.007 Y114.828 E.59618
G1 X165.007 Y115.362 E.01678
G1 X178.43 Y128.785 E.59618
G1 X178.43 Y129.319 E.01678
G1 X165.007 Y115.896 E.59618
G1 X165.007 Y116.43 E.01678
G1 X178.43 Y129.853 E.59618
G1 X178.43 Y130.387 E.01678
G1 X165.007 Y116.964 E.59618
G1 X165.007 Y117.498 E.01678
G1 X178.43 Y130.921 E.59618
G1 X178.43 Y131.455 E.01678
G1 X165.007 Y118.033 E.59618
G1 X165.007 Y118.567 E.01678
G1 X178.43 Y131.99 E.59618
G1 X178.43 Y132.524 E.01678
G1 X165.007 Y119.101 E.59618
G1 X165.007 Y119.635 E.01678
G1 X178.43 Y133.058 E.59618
G1 X178.43 Y133.592 E.01678
M73 P4 R75
G1 X165.007 Y120.169 E.59618
G1 X165.007 Y120.703 E.01678
G1 X178.43 Y134.126 E.59618
G1 X178.43 Y134.66 E.01678
G1 X165.007 Y121.237 E.59618
G1 X165.007 Y121.772 E.01678
G1 X178.43 Y135.195 E.59618
G1 X178.43 Y135.729 E.01678
M73 Q4 S76
G1 X165.007 Y122.306 E.59618
G1 X165.007 Y122.84 E.01678
G1 X178.43 Y136.263 E.59618
G1 X178.43 Y136.797 E.01678
G1 X164.945 Y123.311 E.59895
G1 X164.9 Y123.431 E.00401
G1 X164.735 Y123.636 E.00826
G1 X178.43 Y137.331 E.60828
G1 X178.43 Y137.865 E.01678
G1 X164.395 Y123.83 E.62338
G1 X164.165 Y123.864 E.00729
G1 X163.895 Y123.864 E.0085
G1 X178.43 Y138.399 E.64559
G1 X178.43 Y138.934 E.01678
G1 X163.36 Y123.864 E.66932
G1 X162.826 Y123.864 E.01678
G1 X178.43 Y139.468 E.69304
G1 X178.43 Y140.002 E.01678
G1 X162.292 Y123.864 E.71677
G1 X161.758 Y123.864 E.01678
G1 X178.43 Y140.536 E.74049
G1 X178.43 Y140.93 E.01238
G1 X178.29 Y140.93 E.0044
G1 X161.224 Y123.864 E.75799
G1 X160.69 Y123.864 E.01678
G1 X177.756 Y140.93 E.75799
G1 X177.222 Y140.93 E.01678
G1 X160.156 Y123.864 E.75799
G1 X159.621 Y123.864 E.01678
G1 X176.688 Y140.93 E.75799
G1 X176.153 Y140.93 E.01678
G1 X159.087 Y123.864 E.75799
G1 X158.553 Y123.864 E.01678
G1 X175.619 Y140.93 E.75799
G1 X175.085 Y140.93 E.01678
G1 X158.019 Y123.864 E.75799
G1 X157.485 Y123.864 E.01678
G1 X174.551 Y140.93 E.75799
G1 X174.017 Y140.93 E.01678
G1 X156.951 Y123.864 E.75799
G1 X156.416 Y123.864 E.01678
G1 X173.483 Y140.93 E.75799
G1 X172.949 Y140.93 E.01678
G1 X155.882 Y123.864 E.75799
G1 X155.348 Y123.864 E.01678
G1 X172.414 Y140.93 E.75799
G1 X171.88 Y140.93 E.01678
G1 X154.814 Y123.864 E.75799
G1 X154.28 Y123.864 E.01678
M73 P5 R75
G1 X171.346 Y140.93 E.75799
G1 X170.812 Y140.93 E.01678
G1 X153.746 Y123.864 E.75799
G1 X153.212 Y123.864 E.01678
M73 Q5 S76
G1 X170.278 Y140.93 E.75799
G1 X169.744 Y140.93 E.01678
G1 X152.677 Y123.864 E.75799
G1 X152.143 Y123.864 E.01678
G1 X169.21 Y140.93 E.75799
G1 X168.675 Y140.93 E.01678
G1 X151.609 Y123.864 E.75799
G1 X151.075 Y123.864 E.01678
G1 X168.141 Y140.93 E.75799
G1 X167.607 Y140.93 E.01678
G1 X150.541 Y123.864 E.75799
G1 X150.007 Y123.864 E.01678
G1 X167.073 Y140.93 E.75799
G1 X166.539 Y140.93 E.01678
G1 X149.473 Y123.864 E.75799
G1 X148.938 Y123.864 E.01678
G1 X166.005 Y140.93 E.75799
G1 X165.47 Y140.93 E.01678
G1 X148.404 Y123.864 E.75799
G1 X147.87 Y123.864 E.01678
G1 X164.936 Y140.93 E.75799
G1 X164.402 Y140.93 E.01678
G1 X147.336 Y123.864 E.75799
G1 X146.802 Y123.864 E.01678
G1 X163.868 Y140.93 E.75799
G1 X163.334 Y140.93 E.01678
G1 X146.268 Y123.864 E.75799
G1 X145.733 Y123.864 E.01678
G1 X162.8 Y140.93 E.75799
G1 X162.266 Y140.93 E.01678
G1 X145.199 Y123.864 E.75799
G1 X144.665 Y123.864 E.01678
G1 X161.731 Y140.93 E.75799
G1 X161.197 Y140.93 E.01678
G1 X144.131 Y123.864 E.75799
G1 X143.597 Y123.864 E.01678
G1 X160.663 Y140.93 E.75799
G1 X160.129 Y140.93 E.01678
G1 X143.063 Y123.864 E.75799
G1 X142.529 Y123.864 E.01678
G1 X159.595 Y140.93 E.75799
G1 X159.061 Y140.93 E.01678
M73 P5 R74
G1 X141.994 Y123.864 E.75799
G1 X141.46 Y123.864 E.01678
G1 X158.527 Y140.93 E.75799
G1 X157.992 Y140.93 E.01678
G1 X140.926 Y123.864 E.75799
G1 X140.392 Y123.864 E.01678
G1 X157.458 Y140.93 E.75799
G1 X156.924 Y140.93 E.01678
M73 Q5 S75
G1 X139.858 Y123.864 E.75799
G1 X139.324 Y123.864 E.01678
G1 X156.39 Y140.93 E.75799
G1 X155.856 Y140.93 E.01678
G1 X138.79 Y123.864 E.75799
G1 X138.255 Y123.864 E.01678
G1 X155.322 Y140.93 E.75799
G1 X154.787 Y140.93 E.01678
G1 X137.721 Y123.864 E.75799
G1 X137.187 Y123.864 E.01678
G1 X154.253 Y140.93 E.75799
G1 X153.719 Y140.93 E.01678
G1 X136.653 Y123.864 E.75799
G1 X136.119 Y123.864 E.01678
G1 X153.185 Y140.93 E.75799
G1 X152.651 Y140.93 E.01678
G1 X135.585 Y123.864 E.75799
G1 X135.05 Y123.864 E.01678
G1 X152.117 Y140.93 E.75799
G1 X151.583 Y140.93 E.01678
G1 X134.516 Y123.864 E.75799
G1 X133.982 Y123.864 E.01678
M73 P6 R74
G1 X151.048 Y140.93 E.75799
G1 X150.514 Y140.93 E.01678
G1 X133.448 Y123.864 E.75799
G1 X132.914 Y123.864 E.01678
G1 X149.98 Y140.93 E.75799
G1 X149.446 Y140.93 E.01678
M73 Q6 S75
G1 X132.38 Y123.864 E.75799
G1 X131.846 Y123.864 E.01678
G1 X148.912 Y140.93 E.75799
G1 X148.378 Y140.93 E.01678
G1 X131.311 Y123.864 E.75799
G1 X130.777 Y123.864 E.01678
G1 X147.844 Y140.93 E.75799
G1 X147.309 Y140.93 E.01678
G1 X130.243 Y123.864 E.75799
G1 X129.709 Y123.864 E.01678
G1 X146.775 Y140.93 E.75799
G1 X146.241 Y140.93 E.01678
G1 X129.175 Y123.864 E.75799
G1 X128.641 Y123.864 E.01678
G1 X145.707 Y140.93 E.75799
G1 X145.173 Y140.93 E.01678
G1 X128.107 Y123.864 E.75799
G1 X127.572 Y123.864 E.01678
G1 X144.639 Y140.93 E.75799
G1 X144.104 Y140.93 E.01678
G1 X127.038 Y123.864 E.75799
G1 X126.504 Y123.864 E.01678
G1 X143.57 Y140.93 E.75799
G1 X143.036 Y140.93 E.01678
G1 X125.97 Y123.864 E.75799
G1 X125.436 Y123.864 E.01678
G1 X142.502 Y140.93 E.75799
G1 X141.968 Y140.93 E.01678
G1 X124.732 Y123.694 E.76553
M204 S1000
;WIPE_START
G1 F8640
